X: 9
T: No_18_This_Song_Cheers_Me.krn
N: Derived from No_18_This_Song_Cheers_Me.krn
%%abc-version 2.0
%%abcx-abcm2ps-target-version 5.9.1 (29 Sep 2008)
%%abc-creator hum2abc beta
%%abcx-conversion-date 2019/03/15 08:26:49
%%humdrum-veritas 607756312
%%humdrum-veritas-data 3841794581
%%linebreak <none>
%%barnumbers 0
L: 1/8
M: 2/4
%%staves {1 2}
V: 1 clef=bass
V: 2 clef=bass
K: G
[V:1] [K:clef=bass][M:2/4](B,2(3B,)A,B, | 
[V:2] [K:clef=bass][M:2/4]G,,G,, G,,G,, | 
[V:1] E3B, | 
[V:2] G,,G,,z2 | 
[V:1] A,3z ||  
[V:2] z4 ||  
[V:1] [M:3/4](B,2(3B,)A,G, A,G,/E,/ | 
[V:2] [M:3/4]z6 | 
[V:1] E,3z B,3/E/ | 
[V:2] z6 | 
[V:1] (B,2(3B,)A,G, A,G,/E,/ ||  
[V:2] z6 ||  
[V:1] [M:2/4]E, z/ D,/ E,3/D,/ | 
[V:2] [M:2/4]z4 | 
[V:1] B,,4 | 
[V:2] z4 | 
[V:1] z4 | 
[V:2] z4 | 
[V:1] G,3/E,/ E,E,/D,/ | 
[V:2] z4 | 
[V:1] D,3/B,,/B,,2 | 
[V:2] z4 | 
[V:1] B,,4 |]  
[V:2] z4 |]  



